X:4508
T:Duke of Hamilton's Rant,The. JB.52
M:4/4
L:1/8
Q:140
S:James Biggins MS, Leeds, 1779.
R:Strathspey
O:England
A:Yorkshire
Z:vmp.Nick Barber & Chris Partington
K:G
G>Bd>BA2e2|G>B de/f/ g>dB>G|!
c>eB>g A>Ae2|d/c/B/A/ GBd2e2:|!
|:d>Bg>B A>Ae2|d>Bg>B d>eg>""c'|!
b/a/g/f/ g>B A>Ae2|de/f/ g>Bd2e2:|]
